X: 1687
T: Anthem Of The Former Kingdom Of Galicia
R: polka
M: 2/4
K: Bminor
C2 D2|E3 D/E/|FE/F/ GF/E/F/|D4|F2 G2|
A3 G/A/|BA/B/ c/B/A/B/|G4|C2 D2|E3 D/E/|
FE/F/ G/F/E/F/|D4|F2 G2|A3 GA|BA/B/ c/B/A/B/|
G2 GG|:dc BA|G2 G/F/G/A/|G2 G/F/G/A/|G3 A/B/|
c d Bc|A2 A/G/A/B/|AF/A/ GE/G/|1 F2 FF:|2 F||

